assets/images/main/scroll_down.svg

<svg width="11" height="99" viewBox="0 0 11 99" fill="none" xmlns="http://www.w3.org/2000/svg">
<path d="M3.35352 92.6973C2.50586 92.7793 2.01367 93.5039 2.01367 94.5703C2.01367 95.6914 2.56055 96.375 3.29883 96.375C4.13281 96.375 4.47461 95.5 4.66602 94.6797L4.91211 93.75C5.25391 92.2734 6.0332 90.8516 7.75586 90.8516C9.49219 90.8516 10.6816 92.2187 10.6816 94.5977C10.6816 96.9082 9.57422 98.3574 7.61914 98.4395L7.61914 96.6895C8.6582 96.6074 9.16406 95.7324 9.16406 94.6113C9.16406 93.4355 8.58984 92.6289 7.74219 92.6289C6.96289 92.6289 6.63477 93.3535 6.36133 94.4199L6.07422 95.541C5.65039 97.168 4.83008 98.1797 3.4082 98.1797C1.6582 98.1797 0.496094 96.6211 0.496094 94.543C0.496093 92.4375 1.68555 91.0156 3.35352 90.9883L3.35352 92.6973ZM3.96875 82.7031C2.7793 82.9082 2.0957 83.8652 2.0957 85.0684C2.0957 86.6953 3.33984 87.8301 5.58203 87.8301C7.85156 87.8301 9.06836 86.6816 9.06836 85.0684C9.06836 83.8926 8.41211 82.9355 7.25 82.7031L7.25 80.9121C9.15039 81.1855 10.668 82.7441 10.668 85.0957C10.668 87.707 8.76758 89.6211 5.58203 89.6211C2.38281 89.6211 0.496093 87.6797 0.496093 85.0957C0.496093 82.9082 1.76758 81.2129 3.96875 80.9121L3.96875 82.7031ZM10.5312 79.3809L0.632812 79.3809L0.632811 75.6621C0.632811 73.3926 1.9043 72.1758 3.79101 72.1758C5.13769 72.1758 6.13574 72.791 6.60742 73.9531L10.5312 71.8203L10.5312 73.8027L6.9082 75.7441L6.9082 77.6035L10.5312 77.6035L10.5312 79.3809ZM5.41797 77.6035L5.41797 75.9355C5.41797 74.5957 4.84375 73.9941 3.79101 73.9941C2.73828 73.9941 2.12305 74.5957 2.12305 75.9355L2.12305 77.6035L5.41797 77.6035ZM5.58203 61.8125C8.78125 61.8125 10.668 63.7539 10.668 66.3516C10.668 68.9492 8.76758 70.8906 5.58203 70.8906C2.38281 70.8906 0.496092 68.9492 0.496092 66.3516C0.496092 63.7539 2.38281 61.8125 5.58203 61.8125ZM5.58203 63.6035C3.32617 63.6035 2.0957 64.7383 2.0957 66.3516C2.0957 67.9648 3.32617 69.0996 5.58203 69.0996C7.83789 69.0996 9.06836 67.9648 9.06836 66.3516C9.06836 64.7383 7.83789 63.6035 5.58203 63.6035ZM10.5312 60.2266L0.632811 60.2266L0.632811 58.4492L9.02734 58.4492L9.02734 54.0742L10.5312 54.0742L10.5312 60.2266ZM10.5312 52.6523L0.63281 52.6523L0.63281 50.875L9.02734 50.875L9.02734 46.5L10.5312 46.5L10.5312 52.6523ZM10.5312 38.3926L10.5312 41.7559L0.63281 41.7559L0.63281 38.3379C0.63281 35.3848 2.49218 33.5937 5.56836 33.5937C8.6582 33.5937 10.5312 35.3848 10.5312 38.3926ZM8.98633 39.9785L8.98633 38.4883C8.98633 36.4238 7.85156 35.3711 5.56836 35.3711C3.29883 35.3711 2.17773 36.4238 2.17773 38.4336L2.17773 39.9785L8.98633 39.9785ZM5.58203 23.1895C8.78125 23.1895 10.668 25.1309 10.668 27.7285C10.668 30.3262 8.76758 32.2676 5.58203 32.2676C2.38281 32.2676 0.496091 30.3262 0.496091 27.7285C0.496091 25.1309 2.38281 23.1895 5.58203 23.1895ZM5.58203 24.9805C3.32617 24.9805 2.0957 26.1152 2.0957 27.7285C2.0957 29.3418 3.32617 30.4766 5.58203 30.4766C7.83789 30.4766 9.06836 29.3418 9.06836 27.7285C9.06836 26.1152 7.83789 24.9805 5.58203 24.9805ZM10.5312 19.7578L0.632809 22.5469L0.632809 20.6328L7.91992 18.8418L7.91992 18.7461L0.632809 16.8457L0.632809 15.0957L7.93359 13.1816L7.93359 13.0996L0.632809 11.3086L0.632809 9.39453L10.5312 12.1836L10.5312 13.9473L3.57226 15.9297L3.57226 15.998L10.5312 17.9941L10.5312 19.7578ZM0.632808 0.125L10.5312 0.125L10.5312 1.71094L3.76367 6.40039L3.76367 6.48242L10.5312 6.48242L10.5312 8.25977L0.632809 8.25977L0.632808 6.64648L7.40039 1.98437L7.40039 1.88867L0.632808 1.88867L0.632808 0.125Z" fill="white"/>
</svg>

<svg width="11" height="99" fill="none" xmlns="http://www.w3.org/2000/svg"><path d="M3.354 92.697c-.848.082-1.34.807-1.34 1.873 0 1.121.547 1.805 1.285 1.805.834 0 1.176-.875 1.367-1.695l.246-.93c.342-1.477 1.121-2.898 2.844-2.898 1.736 0 2.926 1.367 2.926 3.746 0 2.31-1.108 3.76-3.063 3.841v-1.75c1.04-.082 1.545-.957 1.545-2.078 0-1.175-.574-1.982-1.422-1.982-.78 0-1.107.724-1.38 1.79l-.288 1.122C5.65 97.168 4.83 98.18 3.408 98.18c-1.75 0-2.912-1.559-2.912-3.637 0-2.106 1.19-3.527 2.858-3.555v1.71Zm.615-9.994c-1.19.205-1.873 1.162-1.873 2.365 0 1.627 1.244 2.762 3.486 2.762 2.27 0 3.486-1.148 3.486-2.762 0-1.175-.656-2.132-1.818-2.365v-1.79c1.9.273 3.418 1.831 3.418 4.183 0 2.611-1.9 4.525-5.086 4.525-3.2 0-5.086-1.941-5.086-4.525 0-2.188 1.272-3.883 3.473-4.184v1.791Zm6.562-3.322H.633v-3.719c0-2.27 1.271-3.486 3.158-3.486 1.347 0 2.345.615 2.816 1.777l3.924-2.133v1.983l-3.623 1.941v1.86h3.623v1.777Zm-5.113-1.778v-1.667c0-1.34-.574-1.942-1.627-1.942s-1.668.602-1.668 1.942v1.667h3.295Zm.164-15.79c3.2 0 5.086 1.94 5.086 4.539 0 2.597-1.9 4.539-5.086 4.539-3.2 0-5.086-1.942-5.086-4.54 0-2.597 1.887-4.538 5.086-4.538Zm0 1.79c-2.256 0-3.486 1.135-3.486 2.749 0 1.613 1.23 2.748 3.486 2.748 2.256 0 3.486-1.135 3.486-2.748 0-1.614-1.23-2.749-3.486-2.749Zm4.95-3.376h-9.9v-1.778h8.395v-4.375h1.504v6.153Zm0-7.575h-9.9v-1.777h8.395V46.5h1.504v6.152Zm0-14.26v3.364h-9.9v-3.418c0-2.953 1.86-4.744 4.936-4.744 3.09 0 4.963 1.79 4.963 4.799Zm-1.546 1.586v-1.49c0-2.064-1.134-3.117-3.418-3.117-2.27 0-3.39 1.053-3.39 3.063v1.544h6.808ZM5.582 23.19c3.2 0 5.086 1.942 5.086 4.54 0 2.597-1.9 4.539-5.086 4.539-3.2 0-5.086-1.942-5.086-4.54 0-2.597 1.887-4.539 5.086-4.539Zm0 1.791c-2.256 0-3.486 1.135-3.486 2.748 0 1.614 1.23 2.749 3.486 2.749 2.256 0 3.486-1.135 3.486-2.748 0-1.614-1.23-2.748-3.486-2.748Zm4.95-5.222-9.9 2.789v-1.914l7.288-1.791v-.096l-7.287-1.9v-1.75l7.3-1.914V13.1l-7.3-1.791V9.395l9.898 2.789v1.763L3.572 15.93v.068l6.96 1.996v1.764ZM.631.125h9.9v1.586L3.763 6.4v.081h6.767V8.26H.633V6.646L7.4 1.984V1.89H.633V.125Z" fill="#fff"/></svg>
